X: 1122
T: STEAMBOAT QUICK-STEP
B: Oliver Ditson "The Boston Collection of Instrumental Music" 1910 p.112 #2
F: http://conquest.imslp.info/files/imglnks/usimg/8/8f/IMSLP175643-PMLP309456-bostoncollection00bost_bw.pdf
%: 2012 John Chambers <jc:trillian.mit.edu>
M: 6/8
L: 1/8
K: F
|:\
f2c A2F | cde f3 | fed cBA | GcB AGF |\
f2c A2F | cde f3 | fed cBA | cBG F3 :|
|:\
A2c cdc | cdc A2F | B2d ded | def c3 |\
A2c cdc | cdc A2F | fed cBA | cBG F3 :|

%%sep 1 1 500
%%sep 1 1 500
